svgs/regular/list-radio.svg

<svg xmlns="http://www.w3.org/2000/svg" viewBox="0 0 512 512"><!-- Font Awesome Pro 6.0.0-alpha2 by @fontawesome - https://fontawesome.com License - https://fontawesome.com/license (Commercial License) --><path d="M184 120H488C501.25 120 512 109.25 512 96S501.25 72 488 72H184C170.75 72 160 82.75 160 96S170.75 120 184 120ZM488 392H184C170.75 392 160 402.75 160 416S170.75 440 184 440H488C501.25 440 512 429.25 512 416S501.25 392 488 392ZM488 232H184C170.75 232 160 242.75 160 256S170.75 280 184 280H488C501.25 280 512 269.25 512 256S501.25 232 488 232ZM99.783 42.932C89.568 36.031 77.254 32 64 32C28.654 32 0 60.656 0 96S28.654 160 64 160C77.254 160 89.568 155.971 99.783 149.068C106.594 144.469 112.471 138.592 117.07 131.781C123.971 121.566 128 109.254 128 96S123.971 70.434 117.07 60.219C112.471 53.41 106.594 47.533 99.783 42.932ZM64 192C28.654 192 0 220.656 0 256S28.654 320 64 320C99.348 320 128 291.344 128 256S99.348 192 64 192ZM64 280C50.768 280 40 269.232 40 256C40 242.766 50.768 232 64 232C77.234 232 88 242.766 88 256C88 269.232 77.234 280 64 280ZM64 352C28.654 352 0 380.656 0 416S28.654 480 64 480C99.348 480 128 451.344 128 416S99.348 352 64 352ZM64 440C50.768 440 40 429.232 40 416C40 402.766 50.768 392 64 392C77.234 392 88 402.766 88 416C88 429.232 77.234 440 64 440Z"/></svg>

<svg xmlns="http://www.w3.org/2000/svg" viewBox="0 0 512 512"><!--! Font Awesome Pro 6.3.0 by @fontawesome - https://fontawesome.com License - https://fontawesome.com/license (Commercial License) Copyright 2023 Fonticons, Inc. --><path d="M64 32a64 64 0 1 0 0 128A64 64 0 1 0 64 32zM184 72c-13.3 0-24 10.7-24 24s10.7 24 24 24H488c13.3 0 24-10.7 24-24s-10.7-24-24-24H184zm0 160c-13.3 0-24 10.7-24 24s10.7 24 24 24H488c13.3 0 24-10.7 24-24s-10.7-24-24-24H184zm0 160c-13.3 0-24 10.7-24 24s10.7 24 24 24H488c13.3 0 24-10.7 24-24s-10.7-24-24-24H184zM64 280a24 24 0 1 1 0-48 24 24 0 1 1 0 48zm0-88a64 64 0 1 0 0 128 64 64 0 1 0 0-128zM40 416a24 24 0 1 1 48 0 24 24 0 1 1 -48 0zm88 0A64 64 0 1 0 0 416a64 64 0 1 0 128 0z"/></svg>
